img/avatar-2.svg

<svg xmlns="http://www.w3.org/2000/svg" preserveAspectRatio="xMidYMid" width="33.625" height="33.656"><circle cx="16.813" cy="16.828" r="16.813" fill="#0fe994"/><path d="M8.22 21.567l.832-1.963s1.246.868 3.58 1.45c.708.174 1.505.33 2.361.425 1.071.112 2.258.14 3.524.004.761-.075 1.561-.223 2.381-.429 1.207-.307 2.219-.654 3.493-1.323l.769 1.761c-8.017 4.957-16.94.075-16.94.075zm10.078-.681c-1.147.128-2.234.092-3.206-.008-.784-.079-1.513-.219-2.162-.382-2.122-.534-3.424-1.322-3.424-1.322 2.461-1.063 2.604-6.137 2.604-6.137h.016c-.012-.123-.016-.239-.016-.366 0-2.728 2.035-4.934 4.543-4.934 2.513 0 4.552 2.206 4.552 4.934 0 .059-.008.119-.008.183l.008-.004c.167 4.384 2.684 6.324 2.684 6.324-1.171.605-2.313 1.039-3.413 1.322-.748.191-1.481.319-2.178.39zm-.163 3.859v.016c0 .892-.629 1.612-1.41 1.612-.764 0-1.394-.72-1.394-1.612v-.024c.853.115 1.804.139 2.804.008z" fill="#fff" fill-rule="evenodd"/></svg>

<svg xmlns="http://www.w3.org/2000/svg" xmlns:xlink="http://www.w3.org/1999/xlink" preserveAspectRatio="xMidYMid" width="33.625" height="33.656" viewBox="0 0 33.625 33.656">
  <defs>
    <style>
      .cls-1 {
        fill: #0fe994;
      }

      .cls-2 {
        fill: #fff;
        fill-rule: evenodd;
      }
    </style>
  </defs>
  <g>
    <circle cx="16.813" cy="16.828" r="16.813" class="cls-1"/>
    <path d="M8.220,21.567 L9.052,19.604 C9.052,19.604 10.298,20.472 12.632,21.054 C13.340,21.228 14.137,21.384 14.993,21.479 C16.064,21.591 17.251,21.619 18.517,21.483 C19.278,21.408 20.078,21.260 20.898,21.054 C22.105,20.747 23.117,20.400 24.391,19.731 L25.160,21.492 C17.143,26.449 8.220,21.567 8.220,21.567 ZM18.298,20.886 C17.151,21.014 16.064,20.978 15.092,20.878 C14.308,20.799 13.579,20.659 12.930,20.496 C10.808,19.962 9.506,19.174 9.506,19.174 C11.967,18.111 12.110,13.037 12.110,13.037 L12.126,13.037 C12.114,12.914 12.110,12.798 12.110,12.671 C12.110,9.943 14.145,7.737 16.653,7.737 C19.166,7.737 21.205,9.943 21.205,12.671 C21.205,12.730 21.197,12.790 21.197,12.854 L21.205,12.850 C21.372,17.234 23.889,19.174 23.889,19.174 C22.718,19.779 21.576,20.213 20.476,20.496 C19.728,20.687 18.995,20.815 18.298,20.886 ZM18.135,24.745 C18.135,24.749 18.135,24.753 18.135,24.761 C18.135,25.653 17.506,26.373 16.725,26.373 C15.961,26.373 15.331,25.653 15.331,24.761 C15.331,24.749 15.331,24.745 15.331,24.737 C16.184,24.852 17.135,24.876 18.135,24.745 Z" class="cls-2"/>
  </g>
</svg>
